X:1
T:Title
%%score 1 ( 2 3 ) { 4 | 5 }
L:1/8
Q:1/4=130
M:3/4
K:D
V:1 treble nm="Grand Piano, Unnamed-000"
V:2 treble nm="Choir Pad, Staff 2"
V:3 treble 
V:4 bass nm="Drawbar Organ, Puer Nobis Nascitur"
V:5 bass 
V:1
 D2 D4 | E2 F4 | G2 F4 | E2 D4 | D2 A4 | A2 A2 B2 | c2 d4 | d2 d4 | A2 d4 | d2 c4 | A2 B4 | B2 A4 | %12
w: By~Trier,~15th~Century *||||||||||||
 G2 A4 | F2 E4 | F2 D4 | C2 D4- | D4 z2 |] %17
w: |||||
V:2
 [A,D]2 [B,D]4 | [CE]2 [DF]4 | [DG]2 F2- [B,F]2 | [CE]2 D4 | [B,D]2 A2- [GA]2 | [FA]2 A2 B2 | %6
 [Ec]2 [Fd]4 | [Gd]2 [Fd]4 | [EA]2 d2- [Fd]2 | [Ed]2 [Ec]4 | [DA]2 [B,B]4 | [DB]2 [DA]4 | %12
 [B,G]2 [EA]4 | [DF]2 [CE]4 | [DF]2 [B,D]4 | [A,C]2 [A,D]4- | [A,D]4 z2 |] %17
V:3
 x6 | x6 | z2 A,2 z2 | x6 | z2 D2 z2 | z2 E4 | x6 | x6 | z2 D2 z2 | x6 | x6 | x6 | x6 | x6 | x6 | %15
 x6 | x6 |] %17
V:4
 F,2 F,4 | A,2 A,4 | D,2 A,,2 G,,2 | A,2 F,4 | D2 D4 | A,2 A,4 | A,2 A,4 | B,2 A,4 | A,2 B,4 | %9
 B,2 A,2 G,2 | F,2 G,4 | G,2 F,4 | G,2 E,4 | A,2 A,4 | A,2 G,2 F,2 | E,2 F,4- | F,4 z2 |] %17
V:5
 D,2 B,,4 | A,,2 D,2 C,2 | B,,2 z2 z2 | A,,2 D,4 | G,2 F,2 E,2 | D,2 C,4 | A,,2 D,4 | D,2 D,4 | %8
 C,2 B,,2 A,,2 | ^G,,2 A,,4 | D,2 G,,4 | B,,2 D,4 | E,2 C,4 | D,2 A,,2 G,,2 | F,,2 G,,4 | %15
 A,,2 [D,,D,]4- | [D,,D,]4 z2 |] %17

